X:1
T:Title
%%score ( 1 2 3 ) { ( 4 7 ) | ( 5 6 ) }
L:1/8
Q:1/4=120
M:6/4
K:F
V:1 treble nm="MusicXML Part"
V:2 treble 
V:3 treble 
V:4 treble nm="MusicXML Part"
V:7 treble 
V:5 bass 
V:6 bass 
V:1
"^Lento e mesto""^Singst." z12 | x10"^Schottisches Lied\n""^(1820-1849)""^Op. 49 No. 3" xx |: %2
w: ||
w: ||
w: ||
w: ||
 x4 x2 x4 x2 | x4 x2 x2 x2 x2 | x6 x6 | x6- x4 x2 | x6 x4 xx | x4 x2 x4 x2 | %8
w: |||dich|||
w: |||fröh-|||
w: |||dir|||
w: |||nicht|||
 x2 x2 x2 x2"^." x2 x2 | x4"^." x2 x2 x2 x2 | x2 x2 x2 x4 x2 | x2 x2 x2 x2 x2 x2 | x6 x6 | x6 x6 | %14
w: ||||||
w: ||||||
w: ||||||
w: ||||||
 z12 | z12 | z12 |1,2,3 x10 xx :|"^Schluss" z12 | z12 | z12 |] %21
w: |||||||
w: |||||||
w: |||||||
w: |||||||
V:2
 x12 | z4"^Alexander Fesca" z2 z4 FG |: A4 A2 B4 B2 | A4 d2 F4 G2 | A6 A6 | A6- A4 A2 | %6
 A6 z2 z2 FG | A4 A2 =B4 B2 | (c2 d2) c2 x6- | x6 (A2 B2) A2 | (F2 E2) D2 F4 E2 | %11
 (D2 d2) c2 (=B2 _B2) G2 | F6 E6 | D6 z4 z2 | x12 | x12 | x12 |1,2,3 z4 z2 z4 FG :| x12 | x12 | %20
 x12 |] %21
V:3
 x12 | z4 z2 z4 (FG) |: A4 A2 B4 B2 | A4 d2 F2 F2 G2 | A6 A6 | A6- A4 A2 | A6 z2 z2 (FG) | A6 =B6 | %8
 c2 d2 c2 (A2 A2 A2) | (A4 A2) A2 B2 A2 | F2 E2 D2 F4 E2 | D2 d2 c2 =B2 _B2 G2 | F6 E6 | D6 z4 z2 | %14
 x12 | x12 | x12 |1,2,3 z4 z2 z4 FG :| x12 | x12 | x12 |] %21
V:4
!pp! z12 | z4 z2 z2 (DE[DF][DEG]) |: [DFA]4 [DFA]2 [DEGB]4 [DEGB]2 | [DFA]4 [Fd]2 [DF]4 [DEG]2 | %4
 [DFA]12- | [DFA](A^GA=GA ^FA=FAEA) | D6- D2 (DE[DF][DEG]) | [DFA]4 [DFA]2 [=B,FG=B]4 [FGB]2 | %8
 [Gc]4 [Gc]2 x6- | x6"^." A6 | ([DF]2 E2 D2) ([DF]4 [^CE]2) | Dd!<(!^cd=cd =B!<)!!>(!d_BdGd!>)! | %12
!<(! (FA^GA[=GB]A!<)! =B^Fc!>(!=F^cE | dD)!>)! z2 z2 z2[K:bass] [E,^C][E,C] [G,E]2 | %14
 z2 [F,D][F,D] [A,F]2 z2[K:treble] [^CE][CE] [EG]2 | z2 [DF][DF] [FA]2 z2 [DG][DG] [GB]2 | %16
 z2 [FA][FA] [Fd]2 z2 [E^c][Ec] [Gce]2 |1,2,3 [Fd]2 z2 z2 z2 (DE[DF][DEG]) :| %18
 [Fd]2 z2 z2 z2[K:bass]!pp! [E,^C][E,C] [G,E]2 | [F,D]2 z2 z2 [F,D]2 z2 z2 | [F,D]2 z2 z2 z4 z2 |] %21
V:5
"^Pianof." x12 | x12 |: x12 | x12 | x12 | x12 | x12 | x12 | B,4 B,2 x6 | x12 | %10
 F,4 F,2 z2 (A,2 G,2) | [F,,D,F,]4 [^F,,D,^F,]2 [G,,D,G,]4 [G,,B,,G,]2 | %12
 (A,2 F,2 D,2) (A,,2 G,2 A,,2) | (D,,2 A,,2 F,2 D,,2 A,,2 ^C,2) | (D,,2 A,,2 D,2 D,,2 A,,2 E,2) | %15
 (D,,2 A,,2 F,2) z2 G,2 E,2 | (D,2 F,2 A,2) (A,,2 E,2 A,,2) |1,2,3 %17
 [D,D] z ([D,F,A,]2 A,,2) D,, z ([D,F,A,]2 A,,2) :| [D,D] z (A,,2 D,,2 A,,2 D,,2 A,,2) | %19
 (D,,2 A,,2 D,,2 A,,2 D,,2 A,,2 |"^Version 1.0 (2009/10/6)" D,,2) z2 z2 z4 z2 |] %21
V:6
 D,, z ([F,A,]2 [D,F,]2) F,, z ([F,A,]2 [D,F,]2) | %1
 A,, z ([F,A,]2 [D,F,]2) F,, z ([D,F,A,]2 [A,,D,F,]2) |: %2
 D,, z ([D,F,A,]2 [A,,D,F,]2) G,, z ([D,E,B,]2 G,,2) | %3
 F,, z ([D,F,A,]2 [A,,D,F,]2) A,,, z ([D,F,A,]2"^© 2009 by CPDL.\nThis edition can be fully distributed, duplicated, performed, and recorded.\nEdited by Christoph Lahme." A,,2) | %4
 A,,, z ([D,F,A,]2 [A,,D,F,]2) A,,, z ([D,F,A,]2 [A,,D,F,]2) | %5
 A,,, z ([D,F,A,]2 [A,,D,F,]2) A,,, z ([^C,G,A,]2 A,,2) | %6
 D,, z ([D,F,A,]2 [A,,D,F,]2) D,, z ([D,F,A,]2 [A,,D,F,]2) | %7
 D,, z ([F,A,]2 [D,F,]2) D,, z ([F,G,]2 [D,F,]2) | [C,E,G,]6 [C,E,A,]6- | [C,E,A,]6 [^C,E,G,]6 | %10
 D,6 A,,6 | x12 | A,,4 z2 x6 | x12 | x12 | x6 G,,6 | A,,6 x6 |1,2,3 x12 :| x12 | x12 | x12 |] %21
V:7
 x12 | x12 |: x12 | x12 | x12 | x12 | x12 | x12 | (E2 C2 E2) ((E2"^." C2 E2)) | %9
 ((E2 C2)) E2 (E2 ^C2 E2) | A,4 A,2 x6 | z2 (A4 G2) z2 z2 | x12 | x8[K:bass] x4 | x8[K:treble] x4 | %15
 x6 B,2 x4 | x6 ^C4 x2 |1,2,3 x12 :| x8[K:bass] x4 | x12 | x12 |] %21

